!!! OTL: Berkowitz228
!!! Chapter: 1
!!! Section: II
!!! Page: 52
!!! Mode: 
!!! Encoder: DJB
**kern
*staff1
*I"Piano
=1-
*clefG2
*k[f#]
*e:
*M4/4
4b\
4gg\
2ee\
=2
4a/
4ff#\
2dd#\
=3
4ee\
4g/
4a/
4cc\
=4
4b\
4g/
2f#/
=5
4g/
4ee\
4b\
4dd#\
=6
4ee\
4a/
2b\
=7
4e/
4a/
2b\
=8
4e/
4cc\
4b\
4a/
=9
4f#/
4g/
2e/
==
*-
